img/gear.svg

<svg viewBox="0 0 12 12" xmlns="http://www.w3.org/2000/svg" fill-rule="evenodd" clip-rule="evenodd" stroke-linejoin="round" stroke-miterlimit="2"><path d="M6.628 1.22c-.185-.627-1.071-.627-1.256 0l-.07.239a1.41 1.41 0 01-2.019.836l-.219-.12c-.573-.311-1.2.315-.888.889l.119.219a1.406 1.406 0 01-.836 2.019l-.24.07c-.626.185-.626 1.071 0 1.256l.24.07a1.41 1.41 0 01.836 2.02l-.12.218c-.311.573.315 1.2.889.888l.219-.119a1.406 1.406 0 012.019.837l.07.238c.185.627 1.071.627 1.256 0l.07-.239a1.41 1.41 0 012.02-.836l.218.12c.573.311 1.2-.315.888-.889l-.119-.218a1.407 1.407 0 01.837-2.02l.238-.07c.627-.185.627-1.071 0-1.256l-.239-.07a1.41 1.41 0 01-.836-2.019l.12-.219c.311-.573-.315-1.2-.889-.888l-.218.119a1.407 1.407 0 01-2.02-.836l-.071-.239h.001zm-1.975-.213c.395-1.342 2.299-1.342 2.694 0l.07.24a.657.657 0 00.942.389l.219-.12c1.23-.669 2.575.676 1.905 1.906l-.119.219a.655.655 0 00.389.941l.24.071c1.342.395 1.342 2.299 0 2.694l-.24.07a.657.657 0 00-.389.942l.12.219c.669 1.23-.677 2.575-1.906 1.905l-.219-.119a.655.655 0 00-.941.389l-.071.24c-.395 1.342-2.299 1.342-2.694 0l-.07-.24a.657.657 0 00-.942-.389l-.219.12c-1.23.669-2.574-.677-1.905-1.906l.12-.219a.658.658 0 00-.39-.941l-.24-.071c-1.342-.395-1.342-2.299 0-2.694l.24-.07a.657.657 0 00.39-.942l-.12-.219c-.669-1.23.676-2.574 1.905-1.905l.219.12a.658.658 0 00.941-.39l.071-.24z" fill="#ccc"/><path d="M6 4.316c-.924 0-1.685.76-1.685 1.684 0 .924.761 1.684 1.685 1.684S7.684 6.924 7.684 6c0-.924-.76-1.685-1.684-1.685zM3.565 6A2.446 2.446 0 016 3.565 2.446 2.446 0 018.435 6 2.446 2.446 0 016 8.435 2.446 2.446 0 013.565 6z" fill="#ccc"/></svg>

<svg viewBox="0 0 12 12" xmlns="http://www.w3.org/2000/svg" fill-rule="evenodd" clip-rule="evenodd" stroke-linejoin="round" stroke-miterlimit="2"><path d="M6.628,1.22C6.443,0.593 5.557,0.593 5.372,1.22L5.302,1.459C5.126,2.054 4.575,2.466 3.954,2.466C3.72,2.466 3.489,2.407 3.283,2.295L3.064,2.175C2.491,1.864 1.864,2.49 2.176,3.064L2.295,3.283C2.407,3.489 2.466,3.72 2.466,3.954C2.466,4.575 2.054,5.126 1.459,5.302L1.219,5.372C0.593,5.557 0.593,6.443 1.219,6.628L1.459,6.698C2.054,6.874 2.466,7.425 2.466,8.046C2.466,8.281 2.407,8.512 2.295,8.718L2.175,8.936C1.864,9.509 2.49,10.136 3.064,9.824L3.283,9.705C3.489,9.593 3.72,9.534 3.954,9.534C4.575,9.534 5.126,9.946 5.302,10.542L5.372,10.78C5.557,11.407 6.443,11.407 6.628,10.78L6.698,10.541C6.874,9.946 7.425,9.534 8.046,9.534C8.281,9.534 8.512,9.593 8.718,9.705L8.936,9.825C9.509,10.136 10.136,9.51 9.824,8.936L9.705,8.718C9.593,8.512 9.534,8.281 9.534,8.046C9.534,7.425 9.946,6.874 10.542,6.698L10.78,6.628C11.407,6.443 11.407,5.557 10.78,5.372L10.541,5.302C9.946,5.126 9.534,4.575 9.534,3.954C9.534,3.72 9.593,3.489 9.705,3.283L9.825,3.064C10.136,2.491 9.51,1.864 8.936,2.176L8.718,2.295C8.512,2.408 8.28,2.467 8.045,2.467C7.424,2.467 6.873,2.055 6.698,1.459L6.627,1.22L6.628,1.22ZM4.653,1.007C5.048,-0.335 6.952,-0.335 7.347,1.007L7.417,1.247C7.499,1.524 7.756,1.716 8.046,1.716C8.155,1.716 8.263,1.689 8.359,1.636L8.578,1.516C9.808,0.847 11.153,2.192 10.483,3.422L10.364,3.641C10.311,3.737 10.284,3.845 10.284,3.954C10.284,4.244 10.476,4.501 10.753,4.582L10.993,4.653C12.335,5.048 12.335,6.952 10.993,7.347L10.753,7.417C10.476,7.499 10.284,7.756 10.284,8.046C10.284,8.155 10.311,8.263 10.364,8.359L10.484,8.578C11.153,9.808 9.807,11.153 8.578,10.483L8.359,10.364C8.263,10.311 8.155,10.284 8.046,10.284C7.756,10.284 7.499,10.476 7.418,10.753L7.347,10.993C6.952,12.335 5.048,12.335 4.653,10.993L4.583,10.753C4.501,10.476 4.244,10.284 3.954,10.284C3.845,10.284 3.737,10.311 3.641,10.364L3.422,10.484C2.192,11.153 0.848,9.807 1.517,8.578L1.637,8.359C1.689,8.263 1.716,8.155 1.716,8.046C1.716,7.756 1.524,7.499 1.247,7.418L1.007,7.347C-0.335,6.952 -0.335,5.048 1.007,4.653L1.247,4.583C1.524,4.501 1.716,4.244 1.716,3.954C1.716,3.845 1.689,3.737 1.637,3.641L1.517,3.422C0.848,2.192 2.193,0.848 3.422,1.517L3.641,1.637C3.737,1.689 3.845,1.716 3.954,1.716C4.244,1.716 4.501,1.524 4.582,1.247L4.653,1.007Z" style="fill:rgb(204,204,204);"/><path d="M6,4.316C5.076,4.316 4.315,5.076 4.315,6C4.315,6.924 5.076,7.684 6,7.684C6.924,7.684 7.684,6.924 7.684,6C7.684,5.076 6.924,4.315 6,4.315ZM3.565,6C3.565,4.664 4.664,3.565 6,3.565C7.336,3.565 8.435,4.664 8.435,6C8.435,7.336 7.336,8.435 6,8.435C4.664,8.435 3.565,7.336 3.565,6Z" style="fill:rgb(204,204,204);"/></svg>
